lib/flags/m/833.svg

<svg xmlns="http://www.w3.org/2000/svg" fill="none" viewBox="0 0 20 15"><mask id="833_svg__a" width="20" height="15" x="0" y="0" mask-type="alpha" maskUnits="userSpaceOnUse"><path fill="#fff" d="M0 0H20V15H0z"/></mask><g mask="url(#833_svg__a)"><path fill="#E31D1C" fill-rule="evenodd" d="M0 0V15H20V0H0Z" clip-rule="evenodd"/><mask id="833_svg__b" width="20" height="15" x="0" y="0" mask-type="alpha" maskUnits="userSpaceOnUse"><path fill="#fff" fill-rule="evenodd" d="M0 0V15H20V0H0Z" clip-rule="evenodd"/></mask><g mask="url(#833_svg__b)"><path fill="#F7FCFF" fill-rule="evenodd" d="M3.80843 2.58813C3.80362 2.53031 3.87282 2.50227 3.91195 2.54511C4.19266 2.85239 4.93456 3.61738 5.36362 3.61738C5.9005 3.61738 8.00899 1.84072 8.63221 2.13014C9.25543 2.41956 10.5172 5.44558 10.5172 5.44558L9.69497 6.477L8.63221 5.89723L8.43135 3.61738C8.43135 3.61738 6.38569 4.66955 5.36362 4.28763L4.78907 4.77042C4.78907 4.77042 4.23576 3.6748 4.01787 3.33969C3.87371 3.11796 3.82493 2.78682 3.80843 2.58813Z" clip-rule="evenodd"/><path fill="#FECA00" fill-rule="evenodd" d="M5.16366 5.07779 4.81379 5.28977 4.88061 4.84079 4.59755 4.52283 4.98872 4.45732 5.16366 4.04883 5.33859 4.45732 5.72976 4.52283 5.44671 4.84079 5.51353 5.28977 5.16366 5.07779zM8.13287 2.37001C8.13287 2.24481 8.23437 2.14331 8.35957 2.14331 8.48477 2.14331 8.58626 2.24481 8.58626 2.37001V3.44101C8.58626 3.56621 8.48477 3.6677 8.35957 3.6677 8.23437 3.6677 8.13287 3.56621 8.13287 3.44101L8.13287 2.37001z" clip-rule="evenodd"/><path fill="#F7FCFF" fill-rule="evenodd" d="M15.7626 3.18958C15.8142 3.21615 15.8013 3.28969 15.7442 3.30018C15.3349 3.3754 14.293 3.59919 14.0656 3.96304C13.7811 4.41834 14.1705 7.14793 13.5948 7.52308C13.0191 7.89824 9.78421 7.36477 9.78421 7.36477L9.34525 6.12087L10.4001 5.52683L12.44 6.56463C12.44 6.56463 12.6317 4.27225 13.4972 3.60786L13.3922 2.86477C13.3922 2.86477 14.6146 2.97614 15.0142 2.96894C15.2787 2.96418 15.5853 3.09829 15.7626 3.18958Z" clip-rule="evenodd"/><path fill="#FECA00" fill-rule="evenodd" d="M12.9331 3.01958 12.9388 2.61054 13.2841 2.90513 13.7037 2.83358 13.552 3.20003 13.8057 3.56485 13.3666 3.49674 13.1038 3.79375 12.9841 3.38521 12.5679 3.20396 12.9331 3.01958zM13.6964 7.00292C13.8086 7.07255 13.8455 7.21867 13.7796 7.33318 13.7089 7.45603 13.5491 7.49345 13.4313 7.41474L12.4634 6.76832C12.3766 6.71031 12.341 6.60022 12.3774 6.50235 12.427 6.36898 12.5864 6.31448 12.7073 6.38948L13.6964 7.00292z" clip-rule="evenodd"/><path fill="#F7FCFF" fill-rule="evenodd" d="M9.28904 13.1147C9.24023 13.1461 9.18299 13.0982 9.20245 13.0435C9.34198 12.6514 9.66912 11.6372 9.46769 11.2584C9.21564 10.7844 6.65707 9.75675 6.62003 9.07061C6.58298 8.38446 8.66242 5.84972 8.66242 5.84972L9.95914 6.09152L9.94617 7.30207L8.02747 8.54974C8.02747 8.54974 9.91687 9.86199 10.0595 10.9437L10.7555 11.2244C10.7555 11.2244 10.0479 12.2273 9.85429 12.577C9.7262 12.8084 9.45672 13.0069 9.28904 13.1147Z" clip-rule="evenodd"/><path fill="#FECA00" fill-rule="evenodd" d="M10.851 10.7493 11.2024 10.9587 10.7746 11.1105 10.6268 11.5097 10.3853 11.1951 9.94248 11.2324 10.221 10.8861 10.0952 10.51 10.5089 10.6106 10.8739 10.3409 10.851 10.7493zM6.93961 9.34819C6.80019 9.40141 6.64515 9.32356 6.60455 9.17996 6.56896 9.05407 6.63479 8.92174 6.75666 8.87418L7.79934 8.4673C7.91519 8.42209 8.04681 8.46588 8.11248 8.57149 8.1982 8.70935 8.13695 8.89118 7.98528 8.94907L6.93961 9.34819z" clip-rule="evenodd"/><path fill="#FECA00" d="M8.5391 6.10315C8.46132 6.07597 8.41977 5.98934 8.4463 5.90966C8.47284 5.82998 8.59745 5.69688 8.67524 5.72406L9.76011 6.10315C9.81608 6.12271 9.85543 6.17436 9.86036 6.23474L9.95737 7.42465C9.96421 7.50854 9.84201 7.57641 9.76011 7.58342C9.67821 7.59043 9.60627 7.52809 9.59943 7.4442L9.5096 6.42091L8.5391 6.10315Z"/><path fill="#FECA00" d="M10.4253 5.47976C10.4901 5.42803 10.6059 5.48798 10.6564 5.55441C10.7069 5.62084 10.6953 5.71662 10.6304 5.76834L9.87893 6.5386C9.81409 6.59033 9.66825 6.48943 9.61776 6.42301C9.56727 6.35658 9.55291 6.17562 9.61776 6.1239L10.4253 5.47976Z"/></g></g></svg>

<svg xmlns="http://www.w3.org/2000/svg" fill="none" viewBox="0 0 20 15"><mask id="833_svg__a" width="20" height="15" x="0" y="0" maskUnits="userSpaceOnUse"><path fill="#fff" d="M0 0h20v15H0z"/></mask><g mask="url(#833_svg__a)"><path fill="#E31D1C" fill-rule="evenodd" d="M0 0v15h20V0H0z" clip-rule="evenodd"/><mask id="833_svg__b" width="20" height="15" x="0" y="0" maskUnits="userSpaceOnUse"><path fill="#fff" fill-rule="evenodd" d="M0 0v15h20V0H0z" clip-rule="evenodd"/></mask><g mask="url(#833_svg__b)"><path fill="#F7FCFF" fill-rule="evenodd" d="M3.808 2.588a.059.059 0 01.104-.043c.28.307 1.023 1.072 1.452 1.072.537 0 2.645-1.776 3.268-1.487.623.29 1.885 3.316 1.885 3.316l-.822 1.031-1.063-.58-.2-2.28s-2.046 1.053-3.068.67l-.575.483s-.553-1.095-.771-1.43c-.144-.222-.193-.553-.21-.752z" clip-rule="evenodd"/><path fill="#FECA00" fill-rule="evenodd" d="M5.164 5.078l-.35.212.067-.45-.283-.317.39-.066.176-.408.175.408.39.066-.282.318.067.449-.35-.212zM8.133 2.37a.227.227 0 11.453 0v1.071a.227.227 0 11-.453 0V2.37z" clip-rule="evenodd"/><path fill="#F7FCFF" fill-rule="evenodd" d="M15.763 3.19c.051.026.038.1-.019.11-.41.075-1.451.3-1.678.663-.285.455.104 3.185-.471 3.56-.576.375-3.81-.158-3.81-.158l-.44-1.244 1.055-.594 2.04 1.038s.192-2.293 1.057-2.957l-.105-.743s1.223.111 1.622.104c.265-.005.571.13.749.22z" clip-rule="evenodd"/><path fill="#FECA00" fill-rule="evenodd" d="M12.933 3.02l.006-.41.345.295.42-.071-.152.366.254.365-.44-.068-.262.297-.12-.409-.416-.181.365-.184zm.763 3.983a.245.245 0 11-.265.412l-.968-.647a.225.225 0 01.244-.378l.99.613z" clip-rule="evenodd"/><path fill="#F7FCFF" fill-rule="evenodd" d="M9.29 13.115a.06.06 0 01-.088-.071c.14-.393.467-1.407.266-1.786-.252-.474-2.81-1.501-2.848-2.187-.037-.687 2.042-3.221 2.042-3.221l1.297.242-.013 1.21L8.028 8.55s1.889 1.312 2.031 2.394l.697.28s-.708 1.003-.902 1.353c-.128.231-.397.43-.565.538z" clip-rule="evenodd"/><path fill="#FECA00" fill-rule="evenodd" d="M10.851 10.75l.351.209-.427.152-.148.399-.242-.315-.442.037.278-.346-.126-.376.414.1.365-.27-.023.41zM6.94 9.348a.254.254 0 01-.183-.474l1.042-.407a.258.258 0 11.186.482l-1.045.4z" clip-rule="evenodd"/><path fill="#FECA00" d="M8.54 6.103a.153.153 0 01-.094-.193c.027-.08.151-.213.23-.186l1.084.38a.15.15 0 01.1.13l.097 1.19c.007.084-.115.152-.197.16a.15.15 0 01-.16-.14l-.09-1.023-.97-.318z"/><path fill="#FECA00" d="M10.425 5.48c.065-.052.181.008.231.074a.155.155 0 01-.026.214l-.751.77c-.065.052-.21-.049-.261-.115-.05-.066-.065-.247 0-.3l.807-.643z"/></g></g></svg>
